miniprogram/assets/figma/grid-user-rectangle.svg

<svg width="24" height="24" viewBox="0 0 24 24" fill="none" xmlns="http://www.w3.org/2000/svg">
<path d="M12 14.75C10.4589 14.75 9.08035 15.8117 8.72639 17.1869C8.62314 17.5881 8.21426 17.8296 7.81312 17.7263C7.41198 17.6231 7.17049 17.2142 7.27373 16.8131C7.80785 14.7379 9.81355 13.25 12 13.25C14.1865 13.25 16.1923 14.7379 16.7264 16.8131C16.8296 17.2142 16.5881 17.6231 16.187 17.7263C15.7859 17.8296 15.377 17.5881 15.2737 17.1869C14.9198 15.8117 13.5412 14.75 12 14.75Z" fill="#9CA3AF"/>
<path fill-rule="evenodd" clip-rule="evenodd" d="M12 6.25C10.3431 6.25 9 7.59315 9 9.25C9 10.9069 10.3431 12.25 12 12.25C13.6569 12.25 15 10.9069 15 9.25C15 7.59315 13.6569 6.25 12 6.25ZM10.5 9.25C10.5 8.42157 11.1716 7.75 12 7.75C12.8284 7.75 13.5 8.42157 13.5 9.25C13.5 10.0784 12.8284 10.75 12 10.75C11.1716 10.75 10.5 10.0784 10.5 9.25Z" fill="#9CA3AF"/>
<path fill-rule="evenodd" clip-rule="evenodd" d="M7.06739 3.25H16.9326C17.8851 3.24999 18.6456 3.24999 19.2599 3.30018C19.8899 3.35165 20.4318 3.45963 20.9295 3.71322C21.7291 4.12068 22.3793 4.77085 22.7868 5.57054C23.0404 6.06824 23.1483 6.61012 23.1998 7.24013C23.25 7.8544 23.25 8.61495 23.25 9.56741V14.4325C23.25 15.385 23.25 16.1456 23.1998 16.7599C23.1483 17.3899 23.0404 17.9318 22.7868 18.4295C22.3793 19.2291 21.7291 19.8793 20.9295 20.2868C20.4318 20.5404 19.8899 20.6484 19.2599 20.6998C18.6456 20.75 17.8851 20.75 16.9327 20.75H7.06737C6.11496 20.75 5.35438 20.75 4.74013 20.6998C4.11012 20.6484 3.56824 20.5404 3.07054 20.2868C2.27085 19.8793 1.62068 19.2291 1.21322 18.4295C0.959634 17.9318 0.85165 17.3899 0.800176 16.7599C0.749989 16.1456 0.749994 15.3851 0.75 14.4326V9.56739C0.749994 8.61495 0.749989 7.85439 0.800176 7.24013C0.85165 6.61012 0.959634 6.06824 1.21322 5.57054C1.62068 4.77085 2.27085 4.12068 3.07054 3.71322C3.56824 3.45963 4.11012 3.35165 4.74013 3.30018C5.3544 3.24999 6.11494 3.24999 7.06739 3.25ZM4.86228 4.79519C4.32503 4.83909 4.00252 4.92184 3.75153 5.04973C3.23408 5.31338 2.81338 5.73408 2.54973 6.25153C2.42184 6.50252 2.33909 6.82503 2.29519 7.36228C2.25058 7.90829 2.25 8.60753 2.25 9.6V14.4C2.25 15.3925 2.25058 16.0917 2.29519 16.6377C2.33909 17.175 2.42184 17.4975 2.54973 17.7485C2.81338 18.2659 3.23408 18.6866 3.75153 18.9503C4.00252 19.0782 4.32503 19.1609 4.86228 19.2048C5.40829 19.2494 6.10753 19.25 7.1 19.25H16.9C17.8925 19.25 18.5917 19.2494 19.1377 19.2048C19.675 19.1609 19.9975 19.0782 20.2485 18.9503C20.7659 18.6866 21.1866 18.2659 21.4503 17.7485C21.5782 17.4975 21.6609 17.175 21.7048 16.6377C21.7494 16.0917 21.75 15.3925 21.75 14.4V9.6C21.75 8.60753 21.7494 7.90829 21.7048 7.36228C21.6609 6.82503 21.5782 6.50252 21.4503 6.25153C21.1866 5.73408 20.7659 5.31338 20.2485 5.04973C19.9975 4.92184 19.675 4.83909 19.1377 4.79519C18.5917 4.75058 17.8925 4.75 16.9 4.75H7.1C6.10753 4.75 5.40829 4.75058 4.86228 4.79519Z" fill="#9CA3AF"/>
</svg>

<svg xmlns="http://www.w3.org/2000/svg" width="24" height="24" fill="none" viewBox="0 0 24 24"><path fill="#9ca3af" d="M12 14.75c-1.541 0-2.92 1.062-3.274 2.437a.75.75 0 1 1-1.452-.374c.534-2.075 2.54-3.563 4.726-3.563s4.192 1.488 4.726 3.563a.75.75 0 0 1-1.452.374C14.92 15.812 13.54 14.75 12 14.75"/><path fill="#9ca3af" fill-rule="evenodd" d="M12 6.25a3 3 0 1 0 0 6 3 3 0 0 0 0-6m-1.5 3a1.5 1.5 0 1 1 3 0 1.5 1.5 0 0 1-3 0" clip-rule="evenodd"/><path fill="#9ca3af" fill-rule="evenodd" d="M7.067 3.25h9.866c.952 0 1.713 0 2.327.05.63.052 1.172.16 1.67.413a4.25 4.25 0 0 1 1.857 1.858c.253.497.361 1.04.413 1.67.05.613.05 1.374.05 2.326v4.865c0 .953 0 1.714-.05 2.328-.052.63-.16 1.172-.413 1.67a4.25 4.25 0 0 1-1.857 1.857c-.498.253-1.04.361-1.67.413-.614.05-1.375.05-2.327.05H7.067c-.952 0-1.713 0-2.327-.05-.63-.052-1.172-.16-1.67-.413a4.25 4.25 0 0 1-1.857-1.857C.96 17.932.852 17.39.8 16.76c-.05-.614-.05-1.375-.05-2.327V9.567c0-.952 0-1.713.05-2.327.052-.63.16-1.172.413-1.67a4.25 4.25 0 0 1 1.858-1.857c.497-.253 1.04-.361 1.67-.413.613-.05 1.374-.05 2.326-.05M4.862 4.795c-.537.044-.86.127-1.11.255A2.75 2.75 0 0 0 2.55 6.252c-.128.25-.21.573-.255 1.11-.044.546-.045 1.246-.045 2.238v4.8c0 .992 0 1.692.045 2.238.044.537.127.86.255 1.11a2.75 2.75 0 0 0 1.202 1.202c.25.128.573.21 1.11.255.546.044 1.246.045 2.238.045h9.8c.992 0 1.692 0 2.238-.045.537-.044.86-.127 1.11-.255a2.75 2.75 0 0 0 1.202-1.201c.128-.252.21-.574.255-1.111.044-.546.045-1.246.045-2.238V9.6c0-.992 0-1.692-.045-2.238-.044-.537-.127-.86-.255-1.11a2.75 2.75 0 0 0-1.2-1.202c-.252-.128-.574-.21-1.111-.255-.546-.044-1.246-.045-2.238-.045H7.1c-.992 0-1.692 0-2.238.045" clip-rule="evenodd"/></svg>
